X:203
T:O'Connell's Trip To Parliament
R:reel
M:4/4
L:1/8
K:Dmaj
dcAF G2FG|Ad~d2 fded|dcAF G2FG|AFGE FDD2:|
|:f3a gfed|(3Bcd ef g2fe|defg a2ge|a2ge fdd2:|

